X: 11
P: No. XI.
M: C|
L: 1/8
K: Gm
V: 1
(dg)g2- ({a}gf)Tdc | B2(B>c) (Bc)BG | F4 (dc)df |\
gag2- gfd2 | f3g (gf)dc | B3c (Bc)BG | (FG)(FG) cBTAG |
d4 Bcde | (fd)ga (ga)gf | (dB)de dcBA | G4 z4 |]
(ba) b4 (ba) | (ag) g4 (g/a/g/f/) | d4 Bcde |
f4 (dc)Bf | g4 (gf)dg | (fd) (d/c/B) (cd) (B/c/B/G/) | F4 Bcde |\
(fd)ga bagf | (dB) de/g/ dcBA | G4 z4 |]
V: 2 clef=bass middle=d
z2b2 B2z2 | B2b2 B2b2 | B2b2 g2e2 | d2B2 c2d2 |
g2G2 z4 | B2z2 e2z2 | B2z2 e2z2 | z2e2 E2z2 |\
z2b2 B2z2 | b2z2 b2z2 | G3c d2D2 | G2g2 G4 |]
z2d'2 d2z2 | z2e'2 e2z2 | d2B2 z2e2 | (dedc) B3z |\
b2z2 b2z2 | B3c d2D2 | G2g2 G4 |]

